src/actions/32/mail-message-new-list.svg

<svg version="1.1" viewBox="0 0 32 32" xmlns="http://www.w3.org/2000/svg">
 <defs>
  <style id="current-color-scheme" type="text/css">.ColorScheme-Text {
        color:#363636;
      }</style>
 </defs>
 <path class="ColorScheme-Text" d="m21 20v1h9v-1zm0 3v1h9v-1zm0 3v1h9v-1z" fill="currentColor"/>
 <path class="ColorScheme-Text" d="m6 5c-2.1263 0-3.8499 1.6437-3.9863 3.7344l-0.013672-0.011719v0.27734 0.9668 12.066 0.9668 0.2793l0.013672-0.011719c0.13738 2.0897 1.8607 3.7324 3.9863 3.7324h14v-1h-14c-1.662 0-3-1.338-3-3v-0.49609l7.5801-5.8809 3.6035 2.7949c0.99892 0.7749 2.6339 0.7749 3.6328 0l3.6035-2.7949 3.0645 2.377h1.6055l-3.8672-3 6.7773-5.2578v8.2578h1v-9.0332-0.9668-0.28125l-0.013672 0.011719c-0.13833-2.0888-1.8613-3.7305-3.9863-3.7305h-20zm0 1h20c1.662 0 3 1.338 3 3v0.49414l-11.988 9.3008c-0.56803 0.44064-1.4574 0.44255-2.0254 0.001953l-11.986-9.2988v-0.49805c0-1.662 1.338-3 3-3zm-3 4.7422 6.7773 5.2578-6.7773 5.2578v-10.516z" fill="currentColor"/>
</svg>

<svg xmlns="http://www.w3.org/2000/svg" viewBox="0 0 32 32">
    <defs>
        <style id="current-color-scheme" type="text/css">
            .ColorScheme-Text{color:#050505;opacity:.7}
        </style>
    </defs>
    <path fill="currentColor" d="M21 20v1h9v-1zm0 3v1h9v-1zm0 3v1h9v-1z" class="ColorScheme-Text"/>
    <path fill="currentColor" d="M6 5a3.987 3.987 0 0 0-3.986 3.734L2 8.723V23.279l.014-.012A3.987 3.987 0 0 0 6 27h14v-1H6c-1.662 0-3-1.338-3-3v-.496l7.58-5.881 3.604 2.795c.999.774 2.634.774 3.632 0l3.604-2.795L24.484 19h1.606l-3.867-3L29 10.742V19h1V8.718l-.014.012A3.987 3.987 0 0 0 26 5H6zm0 1h20c1.662 0 3 1.338 3 3v.494l-11.988 9.3c-.568.442-1.457.443-2.025.003L3 9.498V9c0-1.662 1.338-3 3-3zm-3 4.742L9.777 16 3 21.258V10.742z" class="ColorScheme-Text"/>
</svg>
